X: 41094
T: Trip To Peterswell, The
R: reel
M: 4/4
K: Dmajor
d2fd BAFA|BdAF GFEF|D2FA BAFA|dcde fee2|
d2fd BAFA|BdAF GFEF|D2FA BAdB|AFGE FDD2:|
a3f gece|d2fd BAFE|D2FA BAFA|dcde fee2|
faaf gece|d2fd BAFE|D2FA BAdB|AFGE FDD2:|
dfaf bfaf|dfaf gece|d2fd BAFA|BdAF FEE2|
dfaf bfaf|dfaf gece|d2fd BAFA|BdAG FDD2|
dfaf bfaf|dfaf gece|d2fd BAFA|BdAF FEE2|
d2fd BAFA|BdAF GFEF|D2FA BAdB|AFGE FDD2:|

